X: 121
T: Qing an I ask (for) the peace
L: 1/8
M: 2/4
K: C
A2d2 [I:setbarnb 1]| 
G3E | 
A2d2 | 
G2A2 | 
dc2d | 
g2e c | 
d4- | 
d4 | 
dc2d | 
e2a2 | 
AA2d | 
A GE2 | 
a C C D | 
E GE2 | 
D4 | 
D4 |]

@@@ Tune index: 8789
